!!!!SEGMENT: pl-wumfc--r289_paderewski-ignacy-jan--exercise.krn
!!!cenid: 18xx:3209
!!!COM: Paderewski, Ignacy Jan
!!!COM-rismid: pe30029943
!!!CDT: 1860/11/18-1941/06/29
!!!CNT: Polish
!!!OTL: [Exercise]
!!!PDT:
!!!AGN:
!!!SMS-siglum: PL-Wumfc
!!!SMS-shelfmark: R289
!!!SMS-shelfwork: W
!!!SMS-variant:
!!!SMS-altvar:
!!!NIFC-rismid: 1001159468
!!!URL-scan: http://repozytorium.nifc.pl/skany/pl-wumfc--r289
!!!ONB-nifc:
!!!OMD:
!!!AIN: 1 clars 1 fagot 1 flt
!!!key: b-
**kern	**kern	**dynam	**kern	**dynam	**kern	**dynam
*part4	*part3	*part3	*part2	*part2	*part1	*part1
*staff4	*staff3	*	*staff2	*	*staff1	*
*I"2 Fagotti	*I"2 Clarinetti in B	*	*I"2 Oboi	*	*I"2 Flauti	*
*Ifagot	*Iclars	*	*oboe	*	*Iflt	*
*ICww	*ICww	*	*ICww	*	*ICww	*
*clefF4	*clefG2	*	*clefG2	*	*clefG2	*
*	*ITrd1c2	*	*	*	*	*
*k[b-e-a-d-g-]	*k[b-e-a-d-g-]	*	*k[b-e-a-d-g-]	*	*k[b-e-a-d-g-]	*
*b-:	*b-:	*	*b-:	*	*b-:	*
*M3/4	*M3/4	*	*M3/4	*	*M3/4	*
=1	=1	=1	=1	=1	=1	=1
*^	*	*	*	*	*	*
!	!	!LO:TX:a:t=Cl. 1o	!	!	!	!	!
2.F/	2.BB-\	8F'>/L	.	2.r	.	2.r	.
.	.	8A'>/	.	.	.	.	.
.	.	8B-'>/	.	.	.	.	.
.	.	8c'>/J	.	.	.	.	.
.	.	4d-^>/	.	.	.	.	.
=2	=2	=2	=2	=2	=2	=2	=2
.	.	(<16qqd-/LL	.	.	.	.	.
.	.	16qqe-/JJ)	.	.	.	.	.
2.G-/	2.EE-\	4d-/	.	2.r	.	2.r	.
.	.	(<8c/L	.	.	.	.	.
.	.	8B-/J	.	.	.	.	.
.	.	4d-/)	.	.	.	.	.
=3	=3	=3	=3	=3	=3	=3	=3
2.F/	2.BB-\	8F'</L	.	2.r	.	2.r	.
.	.	8A'</	.	.	.	.	.
.	.	8B-'</	.	.	.	.	.
.	.	8c'</J	.	.	.	.	.
.	.	4d-^>/	.	.	.	.	.
=4	=4	=4	=4	=4	=4	=4	=4
.	.	(<16qqd-/LL	.	.	.	.	.
.	.	16qqe-/JJ)	.	.	.	.	.
2.G-/	2.EE-\	4d-/	.	2.r	.	2.r	.
.	.	(<8c/L	.	.	.	.	.
.	.	8B-/	.	.	.	.	.
.	.	8d-'>/)	.	.	.	.	.
.	.	8b-'>/J	.	.	.	.	.
=5	=5	=5	=5	=5	=5	=5	=5
*	*	*^	*	*^	*	*	*
4F/	4AA-\	2b-/	2d-\	.	4r	4f\	.	2.r	.
2B-\	2ryy	.	.	.	4ff'/	4dd-\	.	.	.
.	.	4b-/	4a-\	.	4ff'/	4dd-\	.	.	.
*v	*v	*	*	*	*	*	*	*	*
=6	=6	=6	=6	=6	=6	=6	=6	=6
4E-\	4b-/	2g-\	.	(>8ff/L	8dd-\L	.	2.r	.
.	.	.	.	8gg-/	8ee-\	.	.	.
4e-\	4r	.	.	8ee-/	8cc\	.	.	.
.	.	.	.	8dd-/J	8b-\J	.	.	.
4A-\	4a-/	4g-\	.	4ee-/)	4cc\	.	.	.
=7	=7	=7	=7	=7	=7	=7	=7	=7
4D-\	4a-/	2f\	.	(>8ee-/L	8cc\L	.	2.r	.
.	.	.	.	8ff/	8dd-\	.	.	.
4d-\	4r	.	.	8dd-/	8b-\	.	.	.
.	.	.	.	8cc/J	8a-\J	.	.	.
4G-\	4g-/	4f\	.	4dd-/)	4b-\	.	.	.
!!LO:LB:g=original
=8	=8	=8	=8	=8	=8	=8	=8	=8
2C\	2g-/	2e-\	.	(>8dd-/L	4b-\	.	2.r	.
.	.	.	.	8ff/	.	.	.	.
.	.	.	.	8ee-/	4r	.	.	.
.	.	.	.	8dd-/	.	.	.	.
4c\	4g/	4eX\	.	8cc/	4r	.	.	.
.	.	.	.	8b-/J)	.	.	.	.
=9	=9	=9	=9	=9	=9	=9	=9	=9
*^	*	*	*	*	*	*	*	*
!	!	!	!	!	!	!	!LO:HP:a	!	!
[>2.c/	4F\	4a/	4f\	.	(>4an/	(<4f\	<	2.r	.
.	2G-\	4r	4ryy	.	4.cc/)	2en\)	.	.	.
.	.	4r	4ryy	.	.	.	.	.	.
.	.	.	.	.	8b-/	.	[	.	.
=10	=10	=10	=10	=10	=10	=10	=10	=10	=10
*	*	*	*	*	*	*	*	*^	*
!	!	!	!	!LO:HP:a	!	!	!	!	!	!LO:HP:a
4c/]	4F\	(>4a/	(<4f\	<	4an/	4f\	.	(>4ccc/	4ff\	<
4r	4r	2b-/	2c\	[	4r	4ryy	.	4.eee-/	2een\	.
4r	4r	.	.	.	4r	4ryy	.	.	.	.
.	.	.	.	.	.	.	.	8ddd-/	.	[
=11	=11	=11	=11	=11	=11	=11	=11	=11	=11	=11
[2.c/	4F\	4a/)	4f\)	.	4an/	4f\	.	4ccc/)	4ff\	.
.	2G-\	4r	4ryy	.	4.cc/	2en\	.	4r	4ryy	.
.	.	4r	4ryy	.	.	.	.	4r	4ryy	.
.	.	.	.	.	8b-/	.	.	.	.	.
=12	=12	=12	=12	=12	=12	=12	=12	=12	=12	=12
!	!	!	!	!LO:HP:a	!	!	!	!	!	!
4c/]	4E-\	(>4a/	(<4f\	<	8an/L	4f\	.	(>4ccc/	4ff\	.
.	.	.	.	[	8cc/J	.	.	.	.	.
4r	4r	2b-/)	2c\)	.	4.ee-/	4r	.	4.eee-/	2een\	.
4r	4r	.	.	.	.	4r	.	.	.	.
.	.	.	.	.	8dd-/	.	.	8ddd-/)	.	.
=13	=13	=13	=13	=13	=13	=13	=13	=13	=13	=13
4r	4r	4a/	4f\	.	(>8cc/L	4r	.	(>8ccc/L	4ff\	.
.	.	.	.	.	8ff/J)	.	.	8fff/)	.	.
[>2F/	4r	4r	[<2f\	.	8gg-'/L	4r	.	8eee-'/	8bb-'\L	.
.	.	.	.	.	8ff'/	.	.	8ddd-'/	8aa-'\	.
.	4r	4r	.	.	8ee-'/	4r	.	8ccc'/	8gg-'\	.
.	.	.	.	.	8dd-'/J	.	.	8bb-'/J	8ff'\J	.
=14	=14	=14	=14	=14	=14	=14	=14	=14	=14	=14
4F/]	4r	4r	4f\]	.	8cc'/L	4r	.	8aa-/L	8ee-\L	.
.	.	.	.	.	8b-'/	.	.	8gg-/	8dd-\	.
[>2F/	2FF\	8r	8r	.	8a-'/J	8r	.	8ff/J	8cc\J	.
.	.	8g-'>/L	8ryy	.	8ee-'/L	8b-'\L	.	8r	8r	.
!	!	!	!	!	!	!	!	!LO:TX:a:t=obligato	!	!
.	.	8f'>/	4f\	.	8dd-'/	8a-'\	.	4ff/	4r	.
.	.	8e-'>/J	.	.	8cc'/J	8an'\J	.	.	.	.
=15	=15	=15	=15	=15	=15	=15	=15	=15	=15	=15
2.F/]	2.BB-\	2.f/	2.d-\	.	4dd-/	4b-\	.	8ff'/L	2.rgyy	.
.	.	.	.	.	.	.	.	8aan'/	.	.
.	.	.	.	.	4r	4r	.	8bb-'/	.	.
.	.	.	.	.	.	.	.	8ccc'/J	.	.
.	.	.	.	.	8f'/L	4r	.	4ddd-^>/	.	.
.	.	.	.	.	8an'/J	.	.	.	.	.
!!LO:LB:g=original
=16	=16	=16	=16	=16	=16	=16	=16	=16	=16	=16
.	.	.	.	.	.	.	.	16qqddd-/LL	.	.
.	.	.	.	.	.	.	.	16qqeee-/JJ	.	.
2.G-/	2.EE-\	2.g-/	2.d-\	.	8b-'/L	4r	.	4ddd-/	2.ryy	.
.	.	.	.	.	8cc'/J	.	.	.	.	.
.	.	.	.	.	4dd-/	4r	.	8ccc/L	.	.
.	.	.	.	.	.	.	.	8bb-/J	.	.
.	.	.	.	.	16qqdd-/LL	.	.	.	.	.
.	.	.	.	.	16qqee-/JJ	.	.	.	.	.
.	.	.	.	.	4dd-/	4r	.	4ddd-/	.	.
=17	=17	=17	=17	=17	=17	=17	=17	=17	=17	=17
2.F/	2.BB-\	2.f/	2.d-\	.	8dd-/L	4r	.	8ff'/L	2.rgyy	.
.	.	.	.	.	8cc/J	.	.	8aan'/	.	.
.	.	.	.	.	4dd-/	4r	.	8bb-'/	.	.
.	.	.	.	.	.	.	.	8ccc'/J	.	.
!	!	!	!	!	!LO:TX:t=P:problem=cross-measure beam	!	!	!	!	!
.	.	.	.	.	8f'/L	4r	.	4ddd-^>/	.	.
.	.	.	.	.	8an'/	.	.	.	.	.
=18	=18	=18	=18	=18	=18	=18	=18	=18	=18	=18
.	.	.	.	.	.	.	.	(<16qqddd-/LL	.	.
.	.	.	.	.	.	.	.	16qqeee-/JJ)	.	.
2.G-/	2.EE-\	2.g-/	2.d-\	.	8b-'/	4r	.	4ddd-/	2.ryy	.
.	.	.	.	.	8cc'/J	.	.	.	.	.
.	.	.	.	.	4dd-/	4r	.	(>8ccc/L	.	.
.	.	.	.	.	.	.	.	8bb-/)	.	.
.	.	.	.	.	(<16qqdd-/LL	.	.	.	.	.
.	.	.	.	.	16qqee-/JJ)	.	.	.	.	.
.	.	.	.	.	4dd-/	4r	.	8ddd-'/	.	.
.	.	.	.	.	.	.	.	8bbb-'/J	.	.
=19	=19	=19	=19	=19	=19	=19	=19	=19	=19	=19
4F/	2.BB-\	8f/L	2d-\	.	4dd-\	4ryy	.	4fff/	4r	.
.	.	8a/	.	.	.	.	.	.	.	.
2B-/	.	8b-/	.	.	4ff/	4dd-\	.	4fff/	4ddd-\	.
.	.	8dd-/	.	.	.	.	.	.	.	.
.	.	8ff/	4a-X\	.	4ff/	4dd-\	.	4fff/	4ddd-\	.
.	.	8b-/J	.	.	.	.	.	.	.	.
=20	=20	=20	=20	=20	=20	=20	=20	=20	=20	=20
4B-/	2E-\	4b-/	2g-\	.	8ff/L	8dd-\L	.	8fff/L	8ddd-\L	.
.	.	.	.	.	8gg-/	8ee-\	.	8ggg-/	8eee-\	.
4e-/	.	4r	.	.	8ee-/	8cc\	.	8eee-/	8ccc\	.
.	.	.	.	.	8dd-/J	8b-\J	.	8ddd-/J	8bb-\J	.
4A-/	4A-\	4a-/	4g-\	.	4ee-/	4cc\	.	4eee-/	4ccc\	.
*v	*v	*	*	*	*	*	*	*	*	*
=21	=21	=21	=21	=21	=21	=21	=21	=21	=21
4D-\	4a-/	2f\	.	8ee-/L	8cc\L	.	8eee-/L	8ccc\L	.
.	.	.	.	8ff/	8dd-\	.	8fff/	8ddd-\	.
4d-\	4r	.	.	8dd-/	8b-\	.	8ddd-/	8bb-\	.
.	.	.	.	8cc/J	8a-\J	.	8ccc/J	8aa-\J	.
4G-\	4g-/	4f\	.	4dd-/	4b-\	.	4ddd-/	4bb-\	.
=22	=22	=22	=22	=22	=22	=22	=22	=22	=22
2C\	2g-/	2e-\	.	8dd-/L	8b-\L	.	8ddd-/L	8bb-\L	.
.	.	.	.	8ff/	8dd-\	.	8fff/	8ccc\	.
.	.	.	.	8ee-/	8cc\	.	8eee-/	8ccc\	.
.	.	.	.	8dd-/	8b-\	.	8ddd-/	8bb-\	.
4F\	4a/	4f\	.	8cc/	8an\	.	8ccc/	8aan\	.
.	.	.	.	8dd-/J	8ff\J	.	8ddd-/J	8aa\J	.
=23	=23	=23	=23	=23	=23	=23	=23	=23	=23
*^	*	*	*	*	*	*	*	*	*
4F/	4BB-\	4b-/	4d-\	.	4ff/	4dd-\	.	4bb-/	4bb-\	.
2F/	2FF\	(>4.dd-/	(<4f\	.	4r	4r	.	4r	4r	.
.	.	.	4e-\)	.	4r	4r	.	4r	4r	.
.	.	8a/)	.	.	.	.	.	.	.	.
!!LO:PB:g=original
=24	=24	=24	=24	=24	=24	=24	=24	=24	=24	=24
4F/	4BB-\	(>8b-/L	4d-\	.	4dd-/	4b-\	.	(>4bb-/	4ff\	.
.	.	8dd-/	.	.	.	.	.	.	.	.
4r	4r	8ee-/	4r	.	4cc/	2f\	.	4.eee-/	2gg-\	.
.	.	8ff/	.	.	.	.	.	.	.	.
4r	4r	8gg-/	4r	.	4ee-/	.	.	.	.	.
.	.	8ccc/J	.	.	.	.	.	8aan/	.	.
=25	=25	=25	=25	=25	=25	=25	=25	=25	=25	=25
4F/	4BB-\	8bb-/)	4d-\	.	4dd-/	4b-\	.	4bb-/)	4ff\	.
.	.	(>8b-/	.	.	.	.	.	.	.	.
2F/	2FF\	4.dd-^>/	4f\	.	4r	4r	.	4r	4r	.
.	.	.	4e-\	.	4r	4r	.	4r	4r	.
.	.	8a/	.	.	.	.	.	.	.	.
=26	=26	=26	=26	=26	=26	=26	=26	=26	=26	=26
[>2.F/	2.BB-\	(>8b-/L)	4d-\	.	4dd-/	4b-\	.	(>4bb-/	4ff\	.
.	.	8dd-/	.	.	.	.	.	.	.	.
.	.	8ee-/	4r	.	2cc/	2e-\	.	4.eee-/	2gg-\	.
.	.	8ff/	.	.	.	.	.	.	.	.
.	.	8gg-/	4r	.	.	.	.	.	.	.
.	.	8ccc/J	.	.	.	.	.	8aan/	.	.
=27	=27	=27	=27	=27	=27	=27	=27	=27	=27	=27
2.F/]	2.BB-\	8ddd-/L	(<2.f\	.	4b-/	4d-\	.	4bb-/)	4ff\	.
.	.	8ccc/	.	.	.	.	.	.	.	.
.	.	8bb-/	.	.	4r	4r	.	4r	4r	.
.	.	8ff/	.	.	.	.	.	.	.	.
.	.	8dd-/	.	.	4r	4r	.	4r	4r	.
.	.	8cc/J	.	.	.	.	.	.	.	.
=28	=28	=28	=28	=28	=28	=28	=28	=28	=28	=28
2.G-/	2.EE-\	8dd-/L)	4.g-\)	.	[>4ee-/	4b-\	.	4bb-/	4gg-\	.
.	.	8cc/J	.	.	.	.	.	.	.	.
.	.	4b-/	.	.	4ee-/]	4b-\	.	4bb-/	4gg-\	.
.	.	.	8f\L	.	.	.	.	.	.	.
.	.	4e-/	8e-\	.	4ee-/	4b-\	.	4bb-/	4gg-\	.
.	.	.	8B-\J	.	.	.	.	.	.	.
=29	=29	=29	=29	=29	=29	=29	=29	=29	=29	=29
!	!	!	!	!	!LO:N:vis=2	!LO:N:vis=2	!	!	!	!
[>2.F/	[<2.BB-\	[>2.f/	8B-'>\L	.	[>2.dd-/	[<2.b-\	.	[>2.bb-/	[<2.ff\	.
.	.	.	8A'>\	.	.	.	.	.	.	.
.	.	.	8B-'>\	.	.	.	.	.	.	.
.	.	.	8c'>\J	.	.	.	.	.	.	.
.	.	.	4d-\	.	.	.	.	.	.	.
=30	=30	=30	=30	=30	=30	=30	=30	=30	=30	=30
2.F/]	2.BB-\]	2.f/]	4c#X\	.	2.dd-/]	2.b-\]	.	2.bb-/]	2.ff\]	.
.	.	.	2d-\	.	.	.	.	.	.	.
*v	*v	*	*	*	*v	*v	*	*v	*v	*
*	*v	*v	*	*	*	*	*
==	==	==	==	==	==	==
*-	*-	*-	*-	*-	*-	*-
!!!system-decoration: {(s1,s2)}{(s3,s4)}
!!!RDF**kern: < = below
!!!RDF**kern: > = above
!!!ENC: Berenika Jozajtis
!!!END: 2021-11-14
!!!ENC: Marta Chmielewska
!!!END: 2021-11-17
